X:11
T:Billy Brocker's
R:Reel
D:Tommy Keane: The Piper's Apron
D:Bothy Band: Old Hag You've Killed Me
S:Henrik Norbeck's abc files
Z:Transcription:Henrik Norbeck, rearrangement, Chords:Mike Long
M:C|
L:1/8
K:D
"D"AF~F2 AFdB|"D"AF~F2 "G"G2GB|\
"D"AF~F2 ABdf|[1 "A"efge "G"fedB:|[2 "A"efge "G"fddc|]
"D"d2de faaf|"A"eA (3(cBA) eA (3(cBA)|"D"dcde faaf|"A"gfeg "G"fddc|
"D"d2de faaf|"A"eA (3(cBA) eA (3(cBA)| "D"~f2fa "G"g2fg|"D"afge "A"fedB|]
